X:1
T:Laudate pueri Dominum
T:Antonio Durán de la Motta
T:Laudate pueri Dominum
C:Antonio Durán de la Motta
%%score [ 1 2 3 ( 4 5 ) ]
L:1/8
Q:1/4=90
M:4/4
K:Dmin
V:1 treble nm="Soprano I"
V:2 treble nm="Soprano II"
V:3 treble nm="Alto"
V:4 bass nm="Tenor"
V:5 bass 
V:1
 z2 d2 cd/c/ dc | B3 G A2 B2 | c2 cc (B2 c)B | A2 B2- BB A2- | A2 G2- GG F2- | F2 _E4 D2 | %6
w: Lau- da- * * * *|te, lau- da- te|pu- e- ri Do- * mi-|num, pu- * e- ri|* Do- * mi- num,|* Do- mi-|
 C2 c2 d2 e2 | f2 ff _e3 e | d2 z2 z2 A2 | d4 d2 c2- | cc B2 A3 A | B4 z2 d2 | B2 G2 dc BA | %13
w: num. Lau- da- te|pu- e- ri Do- mi-|num Lau-|da- te pu-|* e- ri Do- mi-|num. Lau-|da- te no- * * *|
 G2 _ed cB AG | ^FG G4 F2 | GB d2 d2 z2 | d2 c2 z2 c2- | c2 B2 A3 d | B2 G2 dc BA | G4 z D _E2 | %20
w: men, no- * * * men *|Do- * * mi-|ni, Lau- da- te,|no- men Do-|* mi- ni, lau-|da- te no- * * *|men, Lau- da-|
 G2 A2- AA Bc | d2 c2 z2 dc | BA G2- GG ^FF | G8 || z2 D2 G2 F2 | B4 A2 d2- | dd c2- cc B2 | %27
w: te no- * men Do- *|mi- ni, no- *|* * * * men Do- mi-|ni.|A so- lis|or- tu us-|* que ad- * oc- ca-|
 A3 G FG AD | G4 F4 | B2 A2 B3 B | c2 B2 c4 | d3 c BA G2- | G2 z2 d3 c | _e3 d cB AB | c3 c B4 | %35
w: sum, ad oc ca sum, a|so- lis|or- tu us- que|ad oc- ca-|sum, oc- ca- * sum,|* us- que|ad oc- ca- * sum, *|ad oc- ca-|
 A4 z4 | z8 | z2 G2 d2- dc | B2 c2- cc B2- | BB A2 BG c2- | c2 B2 A4 | G2 z2 z2 _e2- | e2 d4 c2- | %43
w: sum||Lau- da- * bi-|le no- * men Do-|* mi- ni, no- men Do|* * mi|ni no-|* men Do-|
 c2 B2 A3 c | =B8 || z2 d2 B2 ^F2 | G2 A>A =BB c2 | d2 _e2- ee d2- | d2 c4 BA | G8 | G2 z2 z2 d2 | %51
w: * * * mi-|ni|Qui si- cut|Do- mi- nus De- us no-|ster, Do- * mi- nus|* De- us *|no-|ster, quis|
 B2 ^F2 G2 A>A | BB c2 d2 c2- | cB/A/ c4 B2 | A2 AA d3 c | B3 A G2 c2- | cB A2 cc f2- | %57
w: si- cut Do- mi- nus|De- us no- ster, De-|* us * no- *|ster, qui in al- tis|ha- bi- tat, ha-|* bi- tat, qui in al-|
 f_e d2- dc B2 | B6 B2 | B4 B4 |[M:3/2] B12 || %61
w: * tis ha- * bi- tat|et hu-|mi- li-|a.|
[Q:1/4=160][Q:1/4=160][Q:1/4=160][Q:1/4=160] G3 A B3 c d2 d2 | z2 _e4 d2 c2 B2 | A8 A3 A | d8 d4 | %65
w: Res- pi- cit in coe- lum|et * in *|ter- ra in|coe- lum,|
 z2 _e4 d2 c4 | =B4 c4 d4 | c12 | =B12 || z12 | G4 A2 A2 =B4 | c2 A2 B2 A2 G4 | A2 F2 G2 G2 A4 | %73
w: et in ter-|ra, et in|ter-|ra.||Glo- ri- a Pa-|tri et Fi- * li-|o, glo- ri- a Pa-|
 B2 c2 c4 d4 | G2 _e2 d3 d c4- | c2 B2 B4 c4 | F8 G2 G2 | A3 A B3 c d4 | B4 c2 B2 A4 | B4 z4 z4 | %80
w: tri et Fi- li-|o et Spi- ri- tu-|* i Sanc- to,|Sanc- to, et|Spi- ri- tu- i Sanc-|to, Sanc- * *|to.|
 z2 d4 c2 B4 | A2 B4 A2 G3 G | F2 D2 _E2 F2 G2 A2 | B4 c2 d2 G4 | B4 A2 G4 G2 | F4 G4 A3 A | %86
w: Si- cut e-|rat in prin- ci- pi-|o et nunc, et nunc et|sem- * * per,|si- cut e- rat|in prin- ci- pi-|
 B3 c d2 d2 c4 | d4 d4 _e4 | d3 c B3 B c4 | B3 A G3 G A4 | G3 A B2 c2 A4 | z2 c2- c4 d4 | %92
w: o et nunc et sem-|per. Et in|sae- cu- la sae- cu-|lo- * rum, a- men,|a- * men, a- men,|et * in|
 c3 B A2 A2 B4 | A3 G F2 F2 G4 | F4 B4 c3 c | B4 d4 _e4 | d4 d4 c4 | c4 B4 A3 A | =B12 || %99
w: sae- cu- la sae- cu-|lo- * rum, a- men,|a- men, _ a-|men, sae- cu-|lo- rum, a-|men, a- men, a-|men,|
[M:4/4][Q:1/4=80][Q:1/4=80][Q:1/4=80][Q:1/4=80] c8- | c4 =B2 A2 | =B8 |] %102
w: a-||men.|
V:2
 z8 | z8 | z8 | z8 | z2 d2 cd/c/ dc | B2 B2 A4 | G2 G2 G4 | A2 A2 B2 c2 | d2 dd c2 dc | %9
w: ||||Lau- da- * * * *|te, lau- da-|te, lau- da-|te, lau- da- te|pu- e- ri Do- * mi-|
 B2 B2- BB AG | ^F2 G4 F2 | G4 z4 | z2 B2 Bc d2 | c4 z2 c2- | c2 B2 A3 A | Bd B2 A2 dc | %16
w: num, pu- * e- ri *|Do- * mi-|num.|Lau- da- * *|te no-|* men Do- mi|ni, lau- da- te no- *|
 BA G2 cB AG | ^FG G4 F2 | G2 G2 B2 d2 | z2 c2 B2 G2 | cB AG F4 | G3 A ^FG AF | G2 BB AB cd/c/ | %23
w: * * men, no- * * *|men * Do- mi-|ni, lau- da- te|Lau- da- te|no- * * * men,|no- men Do- * * mi-|ni, no- men Do- * * mi- *|
 =B8 || z8 | z8 | z8 | z2 d2- dd c2- | cc B2 A2 AA | G2 AG F2 G2 | F3 D G2 ^F2 | B4 A2 d2- | %32
w: ni.||||us- * que ad|* oc- ca sum un- que|ad oc- * ca- *|sum, a so- lis|or- tu u-|
 dd c2- cc BA | G4 G2 A2- | AG ^FF G4 | ^F4 z4 | z4 z2 D2 | G3 G F2 D2 | G3 G ^F2 G2- | GG F4 _E2 | %40
w: * que ad * oc- ca- *|a- sum, us-|* que ad oc- ca-|sum|Lau-|da- bi- le, lau-|da- bi- le no-|* men Do- mi-|
 D3 G d3 c | B2 c2- cc B2 | A4 G3 A | ^F2 G4 F2 | G8 || z4 z2 d2 | B2 ^F2 G2 A>A | BB c2 B2 A2 | %48
w: ni, lau- da- bi-|le no- * men Do-|mi- ni, no-|men Do- mi-|ni|Qui|si- cut Do- mi- nus|De- us no- * ster,|
 BA GF _E2 D2 | dc d2 _e2 d>d | cc B2- BB A2 | G2 A2 B2 c2 | z B A2 G4 | F3 G A2 G2 | F4 z4 | %55
w: no- * * * ster, quis|si- * cut Do- mi- nus|De- us, Do- * mi- nus|De- us no- ster,|Do- mi- nus|De- us no- *|ster.|
 z4 z2 GG | c3 B A3 G | F2 FF B3 A | G3 F _E2 GA | G4 F4 |[M:3/2] F12 || z12 | z12 | %63
w: qui in|al- tis ha- bi-|tat, qui in al- tis|ha- bi- tat et hu-|mi- li-|a.|||
 F3 G A3 B c2 c2 | z2 B4 c2 B4 | A2 G4 G2 G4 | G4 G4 G4 | G12 | G12 || z12 | z12 | z12 | z12 | %73
w: Res- pi- cit in coe- lum|et in ter-|ra, et in ter-|ra, et in|ter-|ra.|||||
 G4 A2 A2 =B4 | c2 G2 B2 A2 G4 | A2 F2 G2 G2 A4 | B2 d2 c4 B4 | A2 c2 B3 B A3 A | G4 G4 ^F4 | %79
w: Glo- ri- a Pa-|tri et Fi- * li-|o, glo- ri- a Pa-|tri et Fi- li-|o et Spi- ri- tu- i|Sanc- to, Sanc-|
 G4 z4 z4 | z12 | z2 d4 c2 B4 | A2 B4 A2 G3 G | F2 G2 A2 =B2 c4 | d2 B2 c2 d2 _e4 | d4 c8 | %86
w: to.||Si- cut e-|rat in prin- ci- pi-|o et nunc et sem-|per, et nunc et sem-|per, et|
 B6 B2 A4 | B4 z4 z4 | z4 d4 _e4 | d3 c B3 B c4 | B3 A G2 G2 d4 | B4 c2 G2 G4 | G2 C2 c4 c4 | %93
w: nunc et sem-|per.|Et in|sae- cu- la sae- cu-|lo- * * rum, a-|men, a- men, a-|men, a- men, a-|
 c4 z4 z4 | z4 d4 _e4 | d3 c B2 B2 A4 | B3 c B3 A A4 | ^F4 G4 F3 F | G12 ||[M:4/4] G8 | G8- | G8 |] %102
w: men,|et in|sae- cu- la sae- cu-|lo- rum, a- men, a-|men, a- men, a-|men,|a-|men.|_|
V:3
 z8 | z2 G2 FG/F/ GF | E2 C2 D2 E2 | F2 FF E2 FE | D2 D2 E2 F2 | G2 GG (F2 G)F | E2 F2- FF ED | %7
w: |Lau- da- * * * *|te, lau- da- te|pu- e- ri Do- * mi-|num, lau- da- te|pu- e- ri Do- * mi|num, pu- * e- ri *|
 C6 C2 | B,2 D2 E2 ^F2 | G2 F4 _E2 | D6 D2 | D4 z4 | z2 D2 G4 | _E4 z2 E2 | D8 | D2 G2 ^F2 D2 | %16
w: Do- mi-|num, lau- da- te|pu- e- ri|Do- mi-|num.|Lau- da-|te lau-|da-|te, lau- da- te|
 GF _ED C3 C | D6 D2 | DD B,2 G,2 z2 | z G _E2 D2 G2 | _E2 C2 FE DC | B,2 _E2 D3 D | D2 DD D3 D | %23
w: no- * * * * men|Do- mi-|ni, lau- da- te|Lau- da- te, lau-|da- te no- * * *|* men Do- mi-|ni, no- men Do- mi-|
 D8 || z8 | z2 G,2 C2 B,2 | _E4 D2 G2- | GG F2- FF _E2 | D6 D2 | D2 F2- FF _E2- | E_E D2 C4 | %31
w: ni.||A sol- lis|or- tu, us-|* que ad * oc- ca-|sum, us-|que, us- * que ad|* oc- ca- *|
 B,4 D3 D | _EF G2 F2 G2- | GG F4 _E2 | F_E DC D4 | D2 D2 G3 G | ^F2 G2- GG =F2- | F2 _E2 D4 | %38
w: sum ad oc-|ca- * * sum us-|* que ad oc-|ca- * * * *|sum, Lau- da- bi-|le no- * men Do-|* * mi-|
 D2 A,2 D3 D | D8 | z4 z2 D2 | G3 G ^F2 G2- | GG F4 _E2 | D4 D3 D | D8 || z8 | z8 | z8 | z4 z2 G2 | %49
w: ni, Lau- da- bi-|le|Lau-|da- bi- le no-|* men Do- mi-|ni Do- mi-|ni||||Quis|
 _E2 =B,2 C2 D>D | _EE F2 G2 FE | D6 D2 | D2 F2- F_E E2 | D2 D2 D2 D2 | D4 DD G2- | GF _E2- ED C2 | %56
w: si- cut Do- mi- nus|De- us no- ster, Do- *|* mi-|nus, Do- * mi- nus|* De- us no-|ster, qui in al-|* tis- ha- * bi- tat,|
 CC F2- F_E D2- | DC B,2 C2 D2 | _E2 E4 E2 | _E4 D4 |[M:3/2] D12 || z12 | z12 | D3 D D2 F2 E2 E2 | %64
w: qui in al- * tis ha-|* bi- tat, ha- bi-|tat et hu-|mi- li-|a.|||Res- pi- cit * coe- lum|
 z2 F4 A2 G4 | F2 G4 F2 _E4 | D4 _E4 F4 | _E12 | D12 || D4 E2 E2 ^F4 | G2 E2 F2 E2 D4 | %71
w: et in ter-|ra, et in ter-|ra, et in|ter-|ra.|Glo- ri- a Pa-|tri et Fi- * li-|
 E2 C2 D2 D2 E4 | F3 F E4 D4 | D2 G2 F4 F4 | E2 G2 F3 F E3 D | C2 F2 _E8 | D2 B,2 C3 C D2 E2 | %77
w: o, glo- ri- a Pa-|tri et Fi- li-|o, et Fi- li-|o et Spi- ri- tu- i|Sanc- * *|to, et Spi- ri- tu- i|
 F2 _E2 D4 F4 | F3 F _E3 D D4 | D4 z4 z4 | z12 | z12 | z12 | z2 G4 F2 _E4 | D2 _E4 D2 C2 B,2 | %85
w: Sanc- * to, et|Spi- ri- tu- i Sanc-|to.||||Si- cut e-|rat in prin- ci- pi-|
 A,2 F2 _E3 E E4 | D3 E F3 F F4 | F4 z4 z4 | z12 | z12 | z4 G4 ^F4 | G3 F _E2 E2 F4 | %92
w: o et nunc et sem-|per, et nunc et sem-|per.|||Et in|sae- cu- la sae- cu-|
 E3 E F2 F2 G4 | C4 D4 C4 | D3 E F2 F4 F2 | F12 | F4 F4 _E3 D | D4 D8 | D12 ||[M:4/4] _E8 | D8- | %101
w: lo- rum, a- men, a-|men, et in|sae- cu- la sae- cu-|lo-|rum, a- men, a-|men, a-|men,|a-|men.|
 D8 |] %102
w: _|
V:4
 z8 | z8 | z8 | z2 D,2 C,D,/C,/ D,C, | B,,2 B,,2 A,,4 | G,,2 G,,2 A,,2 B,,2 | %6
w: |||Lau- da- * * * *|te, lau- da-|te,- lau- da- te|
 C,2 C,C, (B,,2 C,)B,, | A,,2 F,,2 G,,2 A,,2 | B,,2 B,,B,, A,,3 A,, | G,,2 B,,2- B,,B,, C,2 | %10
w: pu- e- ri Do- * mi-|num, lau- da- te|pu- e- ri- Do- mi-|num, pu- * e- ri|
 D,2 G,,2 D,4 | G,,4 z4 | z2 G,2 G,4 | C,4 z2 C,2 | D,2 G,,2 z2 D,2 | B,,2 G,,2 D,C, B,,A,, | %16
w: Do- * mi-|num.|Lau- da-|te lau-|da- te lau-|da- te no- * * *|
 G,,2 C,B,, A,,G,, F, _E, | D,2 G,,2 D,3 D, | G,4 z2 G,2 | _E,2 C,2 G,F, E,D, | %20
w: men, no- * * * * *|* men Do- mi-|ni Lau-|da- te no- * * *|
 C,2 F,_E, D,C, B,,A,, | G,,2 C,2 D,3 D, | G,2 G,G, D,3 D, | G,8 || z8 | z8 | z8 | %27
w: men, no- * * * * *|* men Do- mi|ni, no- men Do- mi-|ni.||||
 z2 D,2- D,D, _E,2 | F,2 G,2 D,2 D,2 | G,2 F,2 B,4 | A,2 B,2- B,B, A,2 | G,4 ^F,2 G,=F, | %32
w: us- * que ad|oc- ca- sum ad|oc- * ca-|sum, us- * que ad|oc- * ca- *|
 _E,D, E,2 D,2 E,2- | E,_E, B,,2- B,,B,, C,2 | D,2 D,D, G,,A,, B,,C, | D,4 z4 | z2 G,,2 D,3 C, | %37
w: * * * sum, us-|* que ad * oc- ca-|sum, ad oc- ca- * * *|sum|Lau- da- bi-|
 B,,2 C,2- C,C, B,,A,, | G,,2 F, _E, D,2 G,2 | D,2 D,2 G,3 G, | ^F,2 G,2- G,G, =F,2- | %41
w: le no- * men Do- *|* * * * mi-|ni, Lau- da- bi-|le no- * men, no-|
 F,F, _E,2 D,2 E,2 | C,2 D,2 B,,2 C,2 | D,2 G,G, D,3 D, | G,8 || z8 | z8 | z8 | z8 | %49
w: * men Do- mi- ni,|no- men Do- mi-|ni, no- men Do- mi-|ni|||||
 z2 G,2 _E,2 =B,,2 | C,2 D,>D, _E,E, F,2 | G,2 D,2 B,,2 ^F,,2 | G,,2 A,,>A,, B,,B,, C,2 | %53
w: Quis si- cut|Do- mi- nus De- us no-|ster, quis si- cut|Do- mi- nus De- us no-|
 D,3 _E, F,2 G,2 | D,4 z4 | z2 G,G, C3 B, | A,3 G, F,2 F,2 | F,2 B,A, G,3 F, | _E,4 E,2 E,2 | %59
w: |ster,|qui in al- tis|ha- bi- tat, in|al- tis * ha- bi-|tat et hu-|
 _E,4 B,,4 |[M:3/2] B,,12 || z12 | z12 | D,3 E, F,3 G, A,2 A,2 | z2 B,4 ^F,2 G,4 | %65
w: mi- li-|a.|||Res- pi- cit in coe- lum|et in ter-|
 D,2 _E,4 B,,2 C,4 | G,,4 C,4 =B,,4 | C,12 | G,,12 || z12 | z12 | z12 | D,4 E,2 E,2 ^F,4 | %73
w: ra, et in ter-|ra, et in|ter-|ra.||||Glo- ri- a Pa-|
 G,2 E,2 =F,2 E,2 D,4 | C,2 C,2 D,2 D,2 E,4 | F,2 D,2 _E,2 D,2 C,4 | B,,2 B,,2 A,,3 A,, G,,2 G,,2 | %77
w: tri et Fi- * li-|o, glo- ri- a Pa-|tri et fi- * li-|o et Spi- ri- tu- i|
 F,,4 G,,4 D,4 | G,2 G,2 C,3 C, D,4 | G,,4 z4 z4 | z12 | z12 | z2 G,4 F,2 _E,4 | %83
w: Sanc- to, et|Spi- ri- tu- i Sanc-|to.|||Si- cut e-|
 D,2 _E,4 D,2 C,2 C,2 | B,,2 G,,2 A,,2 =B,,2 C,4 | D,2 D,2 _E,3 E, F,4 | z4 B,,4 F,,4 | %87
w: rat in prin- ci- pi-|o et nunc et sem-|per, et nunc, et nunc|et sem-|
 B,,4 z4 z4 | z12 | z4 G,4 F,4 | G,3 F, _E,3 E, D,4 | _E,3 D, C,2 C,2 =B,,4 | C,4 F,4 E,4 | %93
w: per.||Et in|sae- cu- la sae- cu-|lo- * * rum, a-|men, et in|
 F,3 E, D,2 D,2 _E,4 | D,2 D,C, B,,2 B,,2 A,,4 | B,,4 B,,4 F,2 F,,2 | B,,4 B,,4 C,4 | %97
w: sae- cu- la sae- cu-|lo- * * * rum, a-|men, a- men, a-|men, a- men,|
 D,3 D, G,,2 G,,2 D,4 | G,,12 ||[M:4/4] C,8 | G,,8- | G,,8 |] %102
w: a- men, a- men, a-|men,|a-|men.|_|
V:5
 x8 | x8 | x8 | x8 | x8 | x8 | x8 | x8 | x8 | x8 | x8 | x8 | x8 | x8 | x8 | x8 | x6 F,,_E,, | %17
 D,,2 x6 | x8 | x8 | x8 | x8 | x8 | x8 || x8 | x8 | x8 | x8 | x8 | x8 | x8 | x8 | x8 | x8 | x8 | %35
 x8 | x8 | x8 | x2 F,,_E,, D,,2 x2 | x8 | x8 | x8 | x8 | x8 | x8 || x8 | x8 | x8 | x8 | x8 | x8 | %51
 x8 | x8 | x8 | x8 | x8 | x8 | x8 | x8 | x8 |[M:3/2] x12 || x12 | x12 | x12 | x12 | x12 | x12 | %67
 x12 | x12 || x12 | x12 | x12 | x12 | x12 | x12 | x12 | x12 | x12 | x12 | x12 | x12 | x12 | x12 | %83
 x12 | x12 | x12 | x8 F,4 | x12 | x12 | x12 | x12 | x12 | x12 | x12 | x12 | x12 | x12 | x12 | %98
 x12 ||[M:4/4] x8 | x8 | x8 |] %102

